X: 33
T: CHEERILY AND MERRILY
B: "FIFTY OLD ENGLISH FOLK DANCE AIRS", Edgar H. Hunt ed., Schott & Co. Ltd. pub., London 1939
Z: 2004-2014 John Chambers <jc:trillian.mit.edu>
M: 6/8
L: 1/8
K: F
|: (c/B/)AF (G/A/)GD | F2F g2g | (ge)c (d/e/)dB | (c>e)(d/e/) c3 :|
|: c(d/e/)f (dc)A | (G>A)B/c/ d2c | (cA)F (G/A/)GD | (F>A)(G/A/) F3 :|

%%sep 1 1 500
%%sep 1 1 500
